X:1
T:Andreas Hofer - Marsch.
T:Andreas Hofer - Marsch.
T:Oscar Fetrás, Op. 204.
T:http://hz.imslp.info/files/imglnks/usimg/7/70/IMSLP490456-PMLP794131-OFetras_Andreas_Hofer-Marsch,_Op.204.pdf
C:Oscar Fetrás, Op. 204.
%%score { ( 1 4 ) | ( 2 3 ) }
L:1/8
M:6/8
K:C
V:1 treble nm="Piano" snm="Pno."
V:4 treble 
V:2 bass 
V:3 bass 
V:1
!f! !>![EGe]3 !>![E^Gd]3 | !>![EAc]3 ^cde | [df][eg][fa] gab | [cec'] z!>(! z z2 z | %4
w: ||||
 z2 z!>)! .a.g.e ||S!p! fzg Bzg | fzg Bzg | ezg czc' | [eg]3 age | fzg Bzg | fzg Bzg | %11
w: |||||||
!f! (e[c'e'])!>![ec'e'] !>![ec'e']!>![ec'e']!>![ec'e'] | %12
w: |
 !>![ec'e']!>![dbd']!>![cac'] !>![Bgb]!>![Afa]!>![Geg] |!p! fzg Bzg | fzg Bzg | ezg czc' | %16
w: ||||
 [eg]3!<(!{/a} g^fg!<)! |!f! ^gza [ee']z[dd'] | [cc']zg [dd']z[cc'] | [Bb]z/a/g [ge']2 [fd'] | %20
w: ||||
 [ec']z[cec']/[cec']/ [cec'] z z!fine! ||[K:G][M:2/2]!f! !>![Ac]4 !>![Ac]4 | !>![Ac]4 !>![ce]4 | %23
w: |||
{/[ce]} [Bd]3 [^A^c] [Bd]4- | [Bd]2 [gb]2 [fa]2 [eg]2 |{/[eg]} [df]3 [^c^e] [df]4- | %26
w: |||
 [df]2 [ec'e']2 [dbd']2 [cac']2 | [Bgb]3 [f^a] [gb]4- | (3[gb]2 [f=a]2 [eg]2 (3[df]2 [ce]2 [Bd]2 | %29
w: |||
 !>![Ac]4 !>![Ac]4 | !>![Ac]4 !>![ce]4 |{/[ce]} [Bd]3 [^A^c] [Bd]4- | %32
w: |||
 [Bd]2 [dgd']2 [=cg=c']2 [Bgb]2 | [Afa]4 [B^d]2 [ce]2 | [eg]4 [^A^c]2 [B=d]2 | %35
w: |||
 ([df]2 ed) (=c2 BA) | G2 GG (3G2 B2 d2 | !>![GBg]2 GG (3G2 B2 d2 | !>![Gc_eg]2 GG (3G2 c2 _e2 | %39
w: ||||
 !>![Bdg]2 !>![GBg]!>![GBg] !>![GBg]2 !>![GBg]2 ||[M:6/8] !>![GBg] z z!>(! .a.g.e!>)! || %41
w: ||
[K:F][M:2/2]S"^Trio."!f!{c'd'e'} f'2 z2 (3[Acf]2 [Acf]2 [Acf]2 | [Acf]2 z2[Q:1/4=180]!mf! C4 || %43
w: |* Zu|
 (F6 E2) | (F4 G4) | (F4 E4) | (D4 C4) | (F6 E2) | (F4 G4) | C8- | C2 z2 C4 | (G6 ^F2) | (G4 A4) | %53
w: Man- tu-|a in|Ban- *|den der|treu- e|Ho- fer|war,|* zu|Man- tu-|a zum|
 (B4 A4) | (G4 F4) | (E4 C4) | (A6 G2) | F8- | F2 z2 A,4 | D6 F2 | E4 D4 | x4 A4 | A,4!<(! A4!<)! | %63
w: To- *|de führt|ihn der|Fein- de|Schar.|_ Es|blu- te-|te der|der|Herz, ganz|
!f! B6 A2 | G2 F2 E2 D2 | [^CEA]8- | [CEA]2 z2!p! =c4 | [ca]4 [ca]4 | [db]4 [ca]4 | ([B-g]8 | %70
w: Deutsch- land|ach, in Gram und|Schmerz,|_ mit|ihm das|Land Ti-|rol,|
 [Bd]4) [Bd]4 | [Ac]4 [Af]4 | [ca]6 [Bcg]2 | [Acf]8- | [Acf]2 z2 c4 |!f! [Aca]4 [Aca]4 | %76
w: _ mit|ihm das|Land Ti-|rol.|_||
 [Bdb]4 [Aca]4 | [GBg]4 [dd']4 | [Bb]4 [Gg]4 | [FAf]4 c4 | [Aca]6 [Gcg]2 | %81
w: |||||
 [Acf]2 !>![_d_d']!>![dd'] !>![dd']2 !>![dd']2 | %82
w: |
 !>![_d_d']2 !>![cec']!>![cec'] !>![cec']2 !>![cec']2 | !>!f2 .c.c .c2 !>![Be]2 | %84
w: ||
 !>![Af]2 .c.c .c2 !>![Be]2 | !>![Af]2 z2 !^![Aca]2 z2 | !^![Acf]2 z2 z4 |] %87
w: |||
V:2
 !>![C,C]3 !>![B,,B,]3 | !>![A,,A,]3 [A,,E,G,A,] z z | [D,F,A,] z z !>![G,,D,F,G,]3 | %3
 C,z[E,G,C] G,,z[E,G,C] | C,z[E,G,C] G,,z[E,G,C] || D,z[F,G,B,] G,,z[F,G,B,] | %6
 D,z[F,G,B,] G,,z[F,G,B,] | C,z[E,G,C] G,,z[E,G,C] | C,z[E,G,C] [E,G,C]3 | %9
 D,z[F,G,B,] G,,z[F,G,B,] | D,z[F,G,B,] G,,z[F,G,B,] | [C,E,G,C] z z G,3- | G,6 | %13
 D,z[F,G,B,] G,,z[F,G,B,] | D,z[F,G,B,] G,,z[F,G,B,] | C,z[E,G,C] G,,z[E,G,C] | %16
 C,z[E,G,C] [E,G,C]3 | z2 D z2 D | z2 C z2 C | [D,=F,B,] z z [G,,B,,F,G,]3 | %20
 [C,E,G,]z[C,E,G,C]/[C,E,G,C]/ [C,E,G,C] z z ||[K:G][M:2/2] !>![D,F,A,C]4 !>![_E,F,A,C]4 | %22
 !>![D,F,A,C]4 !>![F,A,CD]4 | [G,,G,]2 [G,B,D]2 D,2 [G,B,D]2 | [G,,G,]2 [G,B,D]2 D,2 [G,B,D]2 | %25
 [A,,A,]2 [F,CD]2 D,2 [F,CD]2 | [A,,A,]2 [F,CD]2 D,2 [F,CD]2 | [G,,G,]2 [G,B,D]2 D,2 [G,B,D]2 | %28
 [G,,D,A,]2 z2 [D,D]4 | [D,F,A,C]4 [_E,F,A,C]4 | [D,F,A,C]4 [F,A,CD]4 | %31
 [G,,G,]2 [G,B,D]2 D,2 [G,B,D]2 | [G,,G,]2 [G,B,D]2 B,,2 [D,G,D]2 | C,2 [E,A,C]2 C,2 [E,A,C]2 | %34
 D,2 [G,B,]2 D,2 [G,B,]2 | [D,F,A,C]2 z2 [D,F,CD]4 | [G,B,D]2 z2 z4 | !>![G,,D,G,]2 z2 z4 | %38
 !>![G,,C,_E,G,]2 z2 z4 | !>![G,,G,]2 !>!=F,2 !>!D,2"_Dal Segno al Fine." !>!B,,2 || %40
[M:6/8] !>!G,, z z z2 z ||[K:F][M:2/2] [F,A,C]2 z2 (3[F,A,CF]2 [F,A,CF]2 [F,A,CF]2 | %42
 [F,A,CF]2 z2 z4 || [F,A,C]2 z2 [C,A,C]2 z2 | [F,A,C]2 z2 [C,A,C]2 z2 | [G,B,C]2 z2 [C,B,C]2 z2 | %46
 [D,G,B,]2 z2 [E,G,B,]2 z2 | [F,A,]2 z2 [^C,G,A,]2 z2 | [D,F,A,]2 z2 [G,,D,G,]2 z2 | %49
 [C,E,G,]2 z2 [C,E,G,]2 z [C,E,G,] | [C,E,G,]2 z2 z4 | [_B,CE]2 z2 [A,^CD]2 z2 | %52
 [B,CE]2 z2 [^F,C_E]2 z2 | [G,B,D]2 z2 [A,,C,D,^F,]2 z2 | [B,,D,G,]2 z2 [=B,,D,F,_A,]2 z2 | %55
 [C,E,G,]2 z2 [C,E,G,]2 z2 | [C,E,C]2 z2 [C,E,B,]2 z2 | [F,A,]2 z2 [F,A,C]2 z [F,A,C] | %58
 [F,A,C]2 z2 z4 | [D,F,A,]2 z2 [D,F,A,]2 z2 | [D,F,A,]2 z2 [D,F,A,]2 z2 | %61
 [A,,E,A,]2 z2 [A,,E,A,]2 z2 | [A,,^C,E,]2 z2 [A,,A,]4 | [B,,B,]6 [A,,A,]2 | %64
 [G,,G,]2 [F,,F,]2 [E,,E,]2 [D,,D,]2 | [A,,,A,,]2 z2 [A,,E,A,]2 z [A,,E,A,] | [A,,E,A,]2 z2 z4 | %67
 F,2 [A,CF]2 C,2 [A,CF]2 | F,2 [A,C]2 A,,2 [F,A,C]2 | B,,2 [G,B,D]2 D,2 [G,B,D]2 | %70
 B,,2 [G,B,D]2 G,,2 [G,B,D]2 | C,2 [F,A,C]2 C,2 [F,A,C]2 | z2 [E,B,C][E,B,C] [E,B,C]2 [E,B,C]2 | %73
 [F,A,C]2 z (([F,F]!<(! [E,E]2)) [D,D]2 | [C,C]2 [B,,B,]2 [A,,A,]2!<)! [G,,G,]2 | %75
 [F,,F,]2 [A,CF]2 C,2 [A,CF]2 | F,2 [A,C]2 A,,2 [F,A,C]2 | B,,2 [G,B,D]2 G,,2 [G,B,D]2 | %78
 B,,2 [G,B,D]2 B,,2 [G,B,D]2 | C,2 [F,A,C]2 C,2 [F,A,C]2 | z2 [E,B,C][E,B,C] [E,B,C]2 [E,B,C]2 | %81
 [A,C]2 !>![_D,_D]!>![D,D] !>![D,D]2 !>![D,D]2 | %82
 !>![_D,_D]2 !>![C,G,C]!>![C,G,C] !>![C,G,C]2 !>![C,G,C]2 | !>![F,A,C]2 .C.C C4- | C2 .C.C C4- | %85
 C2 z2 !^![F,,C,F,]2 z2 | !^![F,,C,F,]2 z2 z4 |] %87
V:3
 x6 | x6 | x6 | x6 | x6 || x6 | x6 | x6 | x6 | x6 | x6 | x6 | x6 | x6 | x6 | x6 | x6 | %17
 [F,A,]3 [F,_A,]3 | [E,G,]3 [_E,^F,]3 | x6 | x6 ||[K:G][M:2/2] x8 | x8 | x8 | x8 | x8 | x8 | x8 | %28
 x8 | x8 | x8 | x8 | x8 | x8 | x8 | x8 | x8 | x8 | x8 | x8 ||[M:6/8] x6 ||[K:F][M:2/2] x8 | x8 || %43
 x8 | x8 | x8 | x8 | x8 | x8 | x8 | x8 | x8 | x8 | x8 | x8 | x8 | x8 | x8 | x8 | x8 | x8 | x8 | %62
 x8 | x8 | x8 | x8 | x8 | x8 | x8 | x8 | x8 | x8 | C,6 C,2 | x8 | x8 | x8 | x8 | x8 | x8 | x8 | %80
 C,6 C,2 | F,2 z2 z4 | x8 | x2 z2 z2 !>![C,G,]2 | !>![F,A,]2 z2 z2 !>![C,G,]2 | !>![F,A,]2 x6 | %86
 x8 |] %87
V:4
 x6 | x6 | x6 | x6 | x6 || x6 | x6 | x6 | x6 | x6 | x6 | x6 | x6 | x6 | x6 | x6 | x6 | x6 | x6 | %19
 x6 | x6 ||[K:G][M:2/2] x8 | x8 | x8 | x8 | x8 | x8 | x8 | x8 | x8 | x8 | x8 | x8 | x8 | x8 | x8 | %36
 x8 | x8 | x8 | x8 ||[M:6/8] x6 ||[K:F][M:2/2] x8 | x8 || x8 | x8 | x8 | x8 | x8 | x4 =B,2 z2 | %49
 x8 | x8 | x8 | x8 | x8 | x8 | x8 | x8 | x8 | x8 | x8 | x8 | ^C6 z2 | x8 | x8 | x8 | x8 | x8 | x8 | %68
 x8 | x8 | x8 | x8 | x8 | x8 | x4 (c2 B2) | x8 | x8 | x8 | x8 | x8 | x8 | x8 | x8 | x8 | x8 | x8 | %86
 x8 |] %87

